X:1
T:Title
%%score 1 2 3 4
L:1/8
Q:1/4=120
M:4/4
K:C
V:1 treble nm="Soprano" snm="S"
V:2 treble nm="Contralto" snm="C"
V:3 treble-8 nm="Tenor" snm="T"
V:4 bass nm="Bajo" snm="B"
V:1
 z8"^A" || z8 | z8"^Anónimo" | z4 e3 e | e2 e2 d2 B2 | d2 e3 d cB | c4 B4 | z2 d2 B2 c2- | %8
w: |||Pu- se|mis a- mo- res|en Fer- * nan- *|di- llo,|en Fer- nan-|
w: |||El tray-|dor e- ra ca-|sa- do, mal meha men-|ti- do,|mal me ha|
 cd e4 d2 | e8 | z2 B2 c2 B2 | G2 A4 ^G2 | A4 z2 e2- | eeee d!breath!B d2- | dddd c2 !breath!A2 | %15
w: * di- * *|llo,|en Fer- nan-|di- * *|llo. ¡Ay,|_ quee- ra ca- sa- do, ay,|_ quee- ra ca- sa- do,|
w: _ men- ti- *|do,|mal meha men-|ti- * *|do. *|||
 c3 d e3 d/c/ | B4 A4- | A4 z4 | z2 e3 eee | d!breath!B d3 ddd | c2 !breath!A2 c3 d | e3 d/c/ B4 | %22
w: mal me ha men- *|ti- do!|_|¡Ay, quee- ra ca-|sa- do, ay, quee- ra ca-|sa- do, mal me|ha men- * ti-|
w: |||||||
 !breath!A6 c2 | A2 B3 A A2- | A2 ^G2 A4!fine! | c3 c B2 c2 | d4 !breath!c4 | e3 e e2 e2 | %28
w: do, mal|me ha men- ti-|* * do!|Di- gas- meel bar-|que- ro,|di- gas- meel bar-|
w: ||||||
 d2 !breath!B2 cd e2- | edcB c4 | !breath!B2 d2 c2 B2- | BA A4 ^G2 | !breath!A4 c3 c | B2 c2 d4 | %34
w: que- ro, bar- * que-|* * ro ga- rri-|do, bar- que- ro|_ ga- rri- *|do, en qual|de a- que-|
w: ||||||
 !breath!c4 e3 e | e2 e2 d2 B2 | cd e3 dcB | c4 B2 d2 | c2 B3 A A2- | A2 ^G2 A4- | %40
w: llas, en qual|de a- que- *|llas _ bar- * * *|* cas va|Fer- * nan- di-|* * llo|
w: ||||||
"^Desde A hasta Fine con 2ª letra" A4 z4 |] %41
w: _|
w: |
V:2
 z8"^A" || z8 | z4 A3 A | A2 A2 G2 E2 | G4 G2 G2 | F2 G2 A4- | A4 z4 | z8 | A3 A A2 A2 | %9
w: ||Pu- se|mis a- mo- res|en Fer- nan-|di- * llo,|_||pu- se mis a-|
w: ||El tray-|dor e- ra ca-|sa- do, ca-|sa- * do,|_||mal me ha men-|
 G2 EE G2 A2- | !breath!A2 G2 A2 F2 | E2 D2 E4 | z2 A3 AAA | G!breath!E G3 GGG | F!breath!D F4 ED | %15
w: mo- res, a- mo- res,|_ en Fer- nan-|di- * llo.|¡Ay, quee- ra ca-|sa- do, ay, quee- ra ca-|sa- do, mal me _|
w: ti- do, men- ti- do,|_ mal meha men-|ti- * do.||||
 C2 C2 G4 | G4 z4 | z4 z2 A2- | AAAA G!breath!E G2- | GGGG F2 !breath!D2 | F2 ED C2 C2 | G4 G4 | %22
w: ha men- ti-|do!|¡Ay,|_ quee- ra ca- sa- do, ay,|_ quee- ra ca- sa- do,|mal me _ ha men-|ti- do!|
w: |||||||
 z2 F2 F2 F2 | E2 G2 F2 D2 | E4 z2 AA | A2 A2 G2 E2 | F2 G2 A3 G | E2 !breath!F2 G4- | %28
w: mal meha men-|ti- * * *|do. Di- gas-|meel bar- que- ro,|bar- * que- *|* ro, dí-|
w: ||||||
 G2 G2 A2 G2 | E6 F2 | !breath!G4 G2 G2- | GFED E4 | z2 AA A2 A2 | G2 E2 F2 G2 | %34
w: * gas- meel bar-|que- *|ro ga- rri-|* * * * do,|en qual de a-|que- * llas _|
w: ||||||
 A3 G !breath!E2 F2 | G6 G2 | A2 G2 E4 | z2 F2 G4 | G2 G3 FED | E8- | %40
w: bar- cas va, dea-|que- llas|bar- cas va,|va Fer-|nan- di- * * *|llo.|
w: ||||||
"^Desde A hasta Fine con 2ª letra" E4 z4 |] %41
w: _|
w: |
V:3
 z4 e3 e"^A" || e2 e2 d2 B2 | d2 cB cd e2- | e2 d2 e4 | z2 B2 B2 G2 | d2 cB c2 !breath!A2 | %6
w: Pu- se|mis a- mo- res|en Fer- * nan- * di-|* * llo,|en Fer- nan-|di- * * * llo.|
w: El tray-|dor e- ra ca-|sa- * * * * *|* * do,|mal meha men-|ti- * * * do,|
 e3 e e2 e2 | d2 B2 d2 c2- | cB AG A4 | B2 c2 c2 BA | B4 A2 d2 | B2 A2 B4 | A8 | z8 | z8 | %15
w: Pu- se mis a-|mo- res en Fer-|* * nan- * di-|llo, en Fer- nan- *|di- llo, en|Fer- nan- di-|llo.|||
w: el tray- dor e-|ra ca- sa- *||do, mal meha men- *|ti- do, mal|meha men- ti-|do.|||
 z2 e3 eee | d!breath!B d3 ddd | c2 !breath!A2 c3 c | c2 c2 B4 | B2 B2 A4 | A4 z2 e2- | %21
w: ¡Ay, quee- ra ca-|sa- do, ay, quee- ra ca-|sa- do, mal me|ha men- ti-|do, men- ti-|do! ¡Ay,|
w: ||||||
 eeee d!breath!B d2- | dddd c2 !breath!A2 | c2 d3 c A2 | B4 !breath!A4 | e3 e e2 e2 | %26
w: _ quee- ra ca- sa- do, ay,|_ quee- ra ca- sa- do,|mal me ha men-|ti- do!|Di- gas- meel bar-|
w: |||||
 d2 !breath!B2 cd e2- | e2 dc !breath!B4 | B2 B2 A2 B2 | c8 | !breath!d4 e2 d2- | d2 c2 B4 | %32
w: que- ro, bar- * que-|* * * ro,|bar- que- ro, bar-|que-|ro ga- rri-||
w: ||||||
 !breath!A4 e3 e | e2 e2 d2 B2 | cd e4 dc | B4 B2 B2 | A2 B2 c4- | c4 !breath!d4 | e2 d4 c2 | %39
w: do, en qual|de a- que- llas,|de a- que- llas _|bar- cas va|Fer- nan- di-|* llo,|va Fer- nan-|
w: |||||||
 B4 A4 |"^Desde A hasta Fine con 2ª letra" z4 e3 e |] %41
w: di- llo.||
w: |El tray-|
V:4
 A,3 A, A,2 A,2"^A" || G,2 E,2 G,4 | G,2 A,3 G,F,E, | F,4 E,4- | E,4 z4 | z4 A,3 A, | %6
w: Pu- se mis a-|mo- res en|Fer- nan- * * *|di- llo.|_|Pu- se|
w: El tray- dor e-|ra ca- sa-|do, mal me ha men-|ti- do.|_|El tray-|
 A,2 A,2 G,2 E,2 | G,4 G,2 A,2- | A,G,F,E, F,4 | !breath!E,2 E,2 C,2 A,,2 | E,2 E,2 z2 D,2 | %11
w: mis a- mo- res|en Fer- nan-|* * * * di-|llo, en Fer- nan-|di- llo, en|
w: dor e- ra ca-|sa- do, mal|_ me ha men- ti-|do, mal meha men-|ti- do, mal|
 E,2 F,2 E,4 | A,,8 | z8 | z4 z2 A,2- | A,A,A,A, G,!breath!E, G,2- | G,G,G,G, F,2 !breath!D,2 | %17
w: Fer- nan- di-|llo.||¡Ay,|_ quee- ra ca- sa- do, ay,|_ quee- ra ca- sa- do,|
w: meha men- ti-|do.|||||
 F,3 G, A,4 | A,4 E,4 | G,2 G,2 D,4 | z2 A,3 A,A,A, | G,!breath!E, G,3 G,G,G, | %22
w: mal meha men-|ti- do,|men- ti- do!|¡Ay, quee- ra ca-|sa- do, ay, quee- ra ca-|
w: |||||
 F,2 !breath!D,2 F,3 G, | A,2 G,2 D,2 F,2 | E,4 A,,4- | A,,4 z4 | z4 A,3 A, | %27
w: sa- do, mal _|_ me ha men-|ti- do!|_|Di- gas-|
w: |||||
 A,2 A,2 G,2 !breath!E,2 | G,3 G, F,2 E,2 | A,8 | !breath!G,4 C,2 G,2- | G,G, A,2 E,4 | A,8 | z8 | %34
w: meel bar- que- ro,|bar- que- ro ga-|rri-|do, bar- que-|* ro ga- rri-|do,||
w: |||||||
 A,3 A, A,2 A,2 | G,2 E,2 G,2 G,2 | F,2 E,2 A,4 | A,4 G,4 | !breath!C,2 G,2 G,2 A,2 | %39
w: en qual de a-|que- llas bar- cas|va _ Fer-|nan- di-|llo, va Fer- nan-|
w: |||||
 E,4 !breath!A,,4 |"^Desde A hasta Fine con 2ª letra" A,3 A, A,2 A,2 |] %41
w: di- llo.||
w: |El tray- dor e-|

